public/svg-examples/geometric-logo-using-the-abstract-shape-of-a-capit.svg

<svg xmlns="http://www.w3.org/2000/svg" display="block" viewBox="0 0 2048 2048"><path fill="#f2efe6" d="M0 0h2048v2048H0z"/><path fill="#1e424b" d="M1018.97 1737.87c5.07 1.94 11.09 13.74 14.03 18.31-45.894 22.51-101.427 28.41-151.969 29.97-14.864.45-30.297-.68-45.011.43l-1.796.15c-4.648-.17-8.756-.24-13.198-1.82.619-2.14 20.742-3.14 24.023-3.39 55.834-4.21 124.884-15.76 173.921-43.65m30.79 45.14c3.01.83 10.64 13.77 12.98 16.97-83.036 51.01-245.289 32.11-337.885 17.36-6.399-.62-13.084-1.51-19.059-3.94 7.507-2.04 57.602 3.71 69.234 4.45 87.8 5.56 193.738 3.18 274.73-34.84m-63.739-93.07c4.543 2.77 10.363 13.33 13.72 18-78.465 39.47-213.547 39.7-301.188 41.74l-181.133 3.09c-29.678.52-59.599.31-89.171 3.06-4.58.4-9.169 1.23-13.641-.09 6.414-6.68 336.715-23.03 370.491-25.48a1421 1421 0 0 0 89.716-9.73c37.592-5.52 76.928-13.88 111.206-30.59"/><path fill="#1e424b" d="M999.541 1619.89c.317.27.659.52.949.81 5.84 5.77 10.81 14.44 15.59 21.18a2765 2765 0 0 1 37.85 54.69c23.93 34.91 48.32 69.47 71.63 104.81 6.44 9.77 13.46 19.28 19.55 29.27 1.87 3.06 4.45 7.01 3.91 10.76-.22 1.57-.93 1.54-2.13 2.3-1.28-.46-2.05-.9-2.9-1.98-17.4-22-33.76-44.83-50.73-67.16l-97.596-126.61c-22.201 8.36-43.223 17.21-66.351 23.05-72.138 18.24-148.122 21.98-222.155 25.99a10602 10602 0 0 1-111.036 6.28c-55.369 2.36-111.142 3.64-166.402 7.65-25.209.13-50.651 2.26-75.856 3.27-65.09 2.62-130.372 5.57-195.497 6.85-19.078.37-39.032 2.73-57.99 2.07-2.835-.1-5.133-.15-7.664-1.56.233-2.34.976-2.78 3.303-3.4 8.766-2.36 20.886-1.48 30.129-2.08l69.626-5.12 393.877-30.74 119.702-8.17c55.971-3.29 111.435-6.09 166.931-14.64 32.903-5.07 98.149-16.33 123.26-37.52m330.069-300.02c4.73 7.71 9.07 32.92 12.06 42.99a814 814 0 0 0 20.76 61.47c16.84 43.49 41.27 89.66 84.37 111.77 11.94 6.13 24.58 8.72 36.62 14.03.23.75.56 1.71.54 2.49-.05 1.37-.46 3.03-1.53 3.94-1.48 1.26-3.02 1.7-4.92 1.78-19.59.79-39.75-.19-59.4-.09a14730 14730 0 0 1-157.3.04c-13.75-.03-133.06 1.19-136.91-1.35-.24-1.86-.58-3.67-.26-5.53.41-2.33.45-2.87 2.68-3.76 4.65-1.86 10.21-2.76 15.08-4.14 11.21-3.2 21.63-9.38 30.9-16.38 14.17-10.7 27.91-26.03 30.08-44.33 2.29-19.22-6.86-38.72-18.71-53.24 42.62-43.48 94.25-78.06 145.94-109.69M1825.39 0H2048v304.792c-8.84 13.06-16.36 31.436-23.84 45.749-10.59 20.273-22.41 39.938-32.6 60.39a912 912 0 0 0-.9-32.988c-.65-11.904-3.3-54.997-10.96-61.852-5.91 3.886-3.46 18.301-3.16 24.371 1.05 21.123 4.41 80.078-3.46 97.018-7.56 16.287-19.49 30.711-27.42 47.04 1.2-26.616.49-70.89-5.58-95.831-.84-3.475-1.88-9.221-4.98-11.11-3.08 2.897-3.63 7.65-4.07 11.726-.88 8.057.02 16.801.01 24.948-.03 19.899-.25 76.824-4.23 93.388-5.16 21.455-92.71 138.608-110.08 163.895-9.14-18.616-16.47-37.66-26.8-55.773-28.67-50.272-81.02-106.237-133.78-130.748 5.34-11.906 12.93-23.226 19.01-34.838-28.66-15.11-57.46-25.001-90.03-26.355-5.94 9.808-11.58 19.832-17.34 29.752-14.03-3.106-27.88-4.615-42.17-5.607 17.67-31.223 37.06-61.525 55.87-92.065a4661 4661 0 0 1 164.78-249.778 4005 4005 0 0 1 45.85-63.239c10.37-14.007 20.86-29.174 33.14-41.59z"/><path fill="#f2efe6" d="M1825.39 0h37.06l-1.34 2.08c-11.77-1.535-24.01.7-35.85-.784zm137.81 0h84.8v1.712c-28.5.681-57.96 1.304-86.41-.057z"/><path fill="#f2efe6" d="M1862.45 0h100.75l-1.61 1.655c-2.63.62-3.45.736-5.33 2.8-4.35 4.746-7.84 10.878-11.53 16.188l-24.22 34.896a4604 4604 0 0 0-120.42 184.787c-40.35 65.207-80.59 131.078-117.89 198.075-29.68-16.072-57.68-26.763-92.09-23.664 33.27-62.821 72.66-123.16 111.31-182.774 50.67-78.157 102.57-156.247 159.69-229.883z"/><path fill="#1e424b" d="M753.073 539.51c79.474-2.007 159.277-.504 238.788-.54 54.479 135.976 105.859 273.262 161.069 408.928-12.68 13.909-25.54 27.551-39.17 40.546 18.83 12.886 31 33.666 36.92 55.296 18 65.71-6.2 167.62-23.51 232.8-5.48 20.62-10.59 45.38-21.21 64.03-4.94-18.51-12.32-36.51-19-54.46a3267 3267 0 0 0-34.7-90.09l-375.587-.06a8981 8981 0 0 1-82.2 198.03c-12.157 28.39-23.741 56.97-36.512 85.1 15.414 24.04 39.52 49.83 65.793 61.83 9.851 4.5 20.254 6.9 30.641 9.76 1.112 2.82 1.106 5.06 1.067 8.02-.313.14-.615.3-.94.4-5.85 1.8-40.231.42-49.55.46a12865 12865 0 0 1-164.282-.47c-18.213-.15-36.546.72-54.732.15-3.818-.12-6.796-.68-10.175-2.49-1.563-2.42-1.549-2.24-1.011-5.06 3.183-3.5 16.895-4.47 22.473-6.38 39.218-13.43 68.878-47.74 86.416-84.05 15.622-32.71 28.328-67.2 41.97-100.8l59.674-144.45 232.012-570.741c13.414 34.991 27.046 70.117 38.911 105.659-10.896 31.321-24.393 62.402-36.815 93.171l-64.68 161.871c-15.189 37.5-31.81 74.89-45.353 113 48.415.72 96.891.16 145.313.19a14825 14825 0 0 0 168.237-.09c-9.62-29.58-21.52-58.65-32.686-87.68l-37.396-99.146-87.351-235.511c-18.181-47.881-36.987-107.194-83.041-135.431-10.106-6.197-20.804-8.703-31.462-13.49-.925-2.902-.382-4.201.216-7.143z"/><path fill="#1e424b" d="M1772.68 1.608c7.2.315 14.29-.225 21.46-.724-.53 1.907-1.07 3.526-2.16 5.197-6.32 9.636-15.02 18.507-22.36 27.489a1875 1875 0 0 0-33.09 42.53c-66.31 87.353-128.62 185.766-187.17 278.766-16.49 26.181-32.06 52.986-48.23 79.376-6.64 10.846-12.96 22.464-20.47 32.724 79.18-9.896 149.83 13.774 212.14 62.265a340.7 340.7 0 0 1 106.27 142.808c5.71 14.425 9.49 29.289 14.46 43.937a3342 3342 0 0 0 118.53-167.853c10.89-16.568 22.72-32.765 32.98-49.717 19.94-32.93 39.14-66.217 58.52-99.47 8.2-14.084 15.34-28.985 24.44-42.509v36.836c-67.72 119.748-145.05 232.853-227.21 343.088-22.99 30.833-50.29 72.346-79.56 96.696-25.66 21.358-55.65 31.487-87.25 40.489-2.61 12.08-6.81 24.219-10.31 36.102l-21.38 71.93-78.16 259.382a137 137 0 0 0-33.12-5.87c-102.71-6.23-240.5 87.63-314.73 154.18-45.6 40.89-86.37 86.85-132.25 127.56 17.25-30.39 28.91-64.04 40.84-96.81 22.6-62.06 44.18-126.26 58.17-190.87 13.03-60.22 27.02-143.45 8.46-203.54-4.09-13.26-10.19-24.68-17.68-36.313 17.03-18.81 32.73-39.02 48.55-58.857a5921 5921 0 0 0 77.02-98.107c41.11-52.92 83.74-104.816 125.48-157.253-7.9-14.816-13.73-28.513-14.71-45.447-1.36-23.628 5.26-45.975 14.82-67.338 12.34-27.562 29.22-53.284 44.87-79.055a9390 9390 0 0 1 68.83-111.474 6382 6382 0 0 1 136.85-212.241c36.39-54.095 73.96-108.991 117.15-157.907"/><path fill="#f2efe6" d="M1381.07 976.284c10.79-1.263 22.75 1.017 31.42 7.82 6.79 5.336 11.69 13.286 12.56 21.966.86 8.57-2.68 17.11-8.24 23.51-8.15 9.41-19.04 12.96-31.04 14.03-9.83-.43-18.76-1.78-27.25-7.13-7.86-4.95-14.84-13.18-16.51-22.52-1.21-6.78 1.02-13.42 5-18.905 8.1-11.186 20.85-16.539 34.06-18.771m106.07-378.878c22.44-.805 45.73 5.083 66.54 13.099 57.36 22.106 117.35 71.47 142.16 128.266 9.32 21.337 16.59 50.51 11.56 73.749-2.2 10.141-6.69 20.097-10.45 29.734-10.92 5.266-23.25 8.059-34.73 11.976 10.46-13.53 30.87-44.482 29.4-61.953-.1-1.055-.18-2.111-.32-3.162-5.81-46.191-41.88-90.486-77.55-118.051-39.66-30.653-91.34-56.151-142.84-49.455-24.8 3.223-40.64 15.665-55.66 34.969-1.67-6.859-3.1-13.555-3.96-20.565 1.72-3.006 3.49-5.84 5.75-8.466 17.82-20.697 43.79-28.087 70.1-30.141"/><path fill="#f2efe6" d="M1506.18 480.41c54.92-5.352 116.73 19.935 161.45 50.649a315.66 315.66 0 0 1 132.79 203.219c-7.3 11.505-15.64 22.467-23.68 33.461-17.3 23.655-34.46 48.36-60.31 63.324 4.25-9.223 7.21-18.594 8.17-28.741 4.28-45.375-20.49-89.101-48.38-122.773a294 294 0 0 0-30.22-31.686c-42.14-38.052-103.93-70.001-161.98-66.799-30.82 1.7-56.21 12.296-76.82 35.424 2.87-22.818 16.93-62.5 32.64-79.782 23.24-25.561 77.29-25.493 108.44-21.348 10.11 1.346 21.24 5.427 31.32 5.102-8.26-4.053-18.82-6.457-27.82-8.486-35.6-8.025-73.72-10.339-105.59 9.778 7.65-11.077 13.62-23.618 22.66-33.646 12.28-4.533 24.35-6.483 37.33-7.696"/><path fill="#1e424b" d="M1628.95 533.505c.33.168.68.308 1 .505 6.5 4.03 12.81 9.315 19.11 13.783 48.62 34.517 100.27 82.428 115.43 142.34 7.47 29.514-5.55 52.365-20.37 77.139-4.5 7.412-9.8 14.061-15.56 20.511 15.63-49.257-17.32-96.213-46.75-133.206-9.15-11.502-19.57-22.282-27.15-34.93-14.8-24.703-24.11-57.365-25.71-86.142"/><path fill="#f2efe6" d="M1462.83 650.355c19.84-2.163 39.87 1.568 58.49 8.334a252.07 252.07 0 0 1 140.56 128.619c-15.06 57.924-33.19 114.997-50.45 172.29a24065 24065 0 0 1-79.09 260.842 212 212 0 0 0-22.49-2.1c-103.66-3.92-227.21 75.52-303.17 140.69-27.32 23.44-51.42 49.74-77.89 74 16.09-25.73 30.91-52.32 46.32-78.47l113.99-194.4c22.2-37.98 43.83-76.41 67.13-113.73 9.61 4.13 19.02 6.79 29.51 7.13 13.14-.99 24.39-4.85 34.26-13.91 12.12-11.11 18.81-27.62 19.53-43.891.63-14.282-4.42-28.76-14.32-39.175-10.15-10.671-24.3-15.796-38.83-15.845a58.9 58.9 0 0 0-42.08 17.563c-10.46 10.443-17.06 24.753-16.78 39.67.36 18.948 9.43 30.038 22.37 42.518-65.03 103.2-122.89 210.89-186.35 315.07-9.83 16.14-19.23 32.59-28.76 48.92-3.49 5.98-6.47 12.49-10.31 18.21l-.47-.68c8.52-21.13 15.21-43.74 21.96-65.53 11.1-35.84 21.53-71.62 30.24-108.13 17.29-72.48 39.79-190.86-1.12-257.313a183 183 0 0 1 5.11-7.117c18.29-24.079 38.35-47.14 57.27-70.758l114.67-144.266a7320 7320 0 0 1 62.94-78.523c8.07-10.046 15.61-22.535 25-31.259 6.38-5.928 14.46-7.568 22.76-8.759"/><path fill="#1e424b" d="M1466.35 671.134c3.88-.537 9.56-1.093 12.9 1.477 2.15 1.657 2.57 3.454 2.57 6.044.05 12.711-38.53 50.724-48.48 62.402a5216 5216 0 0 1-127.14 145.407c-27.45 30.231-55.36 61.05-85.5 88.638-2.03 1.931-4.16 3.761-6.26 5.616l-.76-.142 1.48-.329-.91-.739c8.91-12.697 19.61-24.552 29.21-36.78a6747 6747 0 0 0 60.97-79.077l79.38-104.347c16.87-22.006 33.9-45.652 52.75-65.997 8.45-9.126 18.32-17.262 29.79-22.173m125.84 56.375c19.32 15.542 33.82 39.267 46.78 60.097-5.2 14.275-9.09 29.089-13.39 43.661l-24.72 85.035-43.16 143.068c-13.53 44.93-26.69 90.06-41.33 134.63-12.45-.13-24.75-.38-37.17.82-59.18 5.72-116.35 30.59-166.75 60.98-8.42 5.46-21.23 14.2-30.39 17.99l2.38-1.31-.6-.6c40.35-35.96 90.64-64.72 142.52-79.79z"/></svg>

<svg preserveAspectRatio="xMidYMid meet" version="1.1" xmlns="http://www.w3.org/2000/svg" style="display: block;" viewBox="0 0 2048 2048" width="1024" height="1024">
<path transform="translate(0,0)" fill="rgb(242,239,230)" d="M 0 0 L 1794.46 0 L 1825.39 0 L 1862.45 0 L 1963.2 0 L 2048 0 L 2048 1.71169 L 2048 304.792 L 2048 356.427 L 2048 393.263 L 2048 2048 L 0 2048 L 0 0 z"/>
<path transform="translate(0,0)" fill="rgb(30,66,75)" d="M 1018.97 1737.87 C 1024.04 1739.81 1030.06 1751.61 1033 1756.18 C 987.106 1778.69 931.573 1784.59 881.031 1786.15 C 866.167 1786.6 850.734 1785.47 836.02 1786.58 C 835.42 1786.63 834.822 1786.68 834.224 1786.73 C 829.576 1786.56 825.468 1786.49 821.026 1784.91 C 821.645 1782.77 841.768 1781.77 845.049 1781.52 C 900.883 1777.31 969.933 1765.76 1018.97 1737.87 z"/>
<path transform="translate(0,0)" fill="rgb(30,66,75)" d="M 1049.76 1783.01 C 1052.77 1783.84 1060.4 1796.78 1062.74 1799.98 C 979.704 1850.99 817.451 1832.09 724.855 1817.34 C 718.456 1816.72 711.771 1815.83 705.796 1813.4 C 713.303 1811.36 763.398 1817.11 775.03 1817.85 C 862.83 1823.41 968.768 1821.03 1049.76 1783.01 z"/>
<path transform="translate(0,0)" fill="rgb(30,66,75)" d="M 986.021 1689.94 C 990.564 1692.71 996.384 1703.27 999.741 1707.94 C 921.276 1747.41 786.194 1747.64 698.553 1749.68 L 517.42 1752.77 C 487.742 1753.29 457.821 1753.08 428.249 1755.83 C 423.669 1756.23 419.08 1757.06 414.608 1755.74 C 421.022 1749.06 751.323 1732.71 785.099 1730.26 A 1421.31 1421.31 0 0 0 874.815 1720.53 C 912.407 1715.01 951.743 1706.65 986.021 1689.94 z"/>
<path transform="translate(0,0)" fill="rgb(30,66,75)" d="M 999.541 1619.89 C 999.858 1620.16 1000.2 1620.41 1000.49 1620.7 C 1006.33 1626.47 1011.3 1635.14 1016.08 1641.88 A 2764.73 2764.73 0 0 1 1053.93 1696.57 C 1077.86 1731.48 1102.25 1766.04 1125.56 1801.38 C 1132 1811.15 1139.02 1820.66 1145.11 1830.65 C 1146.98 1833.71 1149.56 1837.66 1149.02 1841.41 C 1148.8 1842.98 1148.09 1842.95 1146.89 1843.71 C 1145.61 1843.25 1144.84 1842.81 1143.99 1841.73 C 1126.59 1819.73 1110.23 1796.9 1093.26 1774.57 L 995.664 1647.96 C 973.463 1656.32 952.441 1665.17 929.313 1671.01 C 857.175 1689.25 781.191 1692.99 707.158 1697 A 10602.3 10602.3 0 0 1 596.122 1703.28 C 540.753 1705.64 484.98 1706.92 429.72 1710.93 C 404.511 1711.06 379.069 1713.19 353.864 1714.2 C 288.774 1716.82 223.492 1719.77 158.367 1721.05 C 139.289 1721.42 119.335 1723.78 100.377 1723.12 C 97.5416 1723.02 95.2436 1722.97 92.7128 1721.56 C 92.9455 1719.22 93.6888 1718.78 96.0157 1718.16 C 104.782 1715.8 116.902 1716.68 126.145 1716.08 L 195.771 1710.96 L 589.648 1680.22 L 709.35 1672.05 C 765.321 1668.76 820.785 1665.96 876.281 1657.41 C 909.184 1652.34 974.43 1641.08 999.541 1619.89 z"/>
<path transform="translate(0,0)" fill="rgb(30,66,75)" d="M 1329.61 1319.87 C 1334.34 1327.58 1338.68 1352.79 1341.67 1362.86 A 814.366 814.366 0 0 0 1362.43 1424.33 C 1379.27 1467.82 1403.7 1513.99 1446.8 1536.1 C 1458.74 1542.23 1471.38 1544.82 1483.42 1550.13 C 1483.65 1550.88 1483.98 1551.84 1483.96 1552.62 C 1483.91 1553.99 1483.5 1555.65 1482.43 1556.56 C 1480.95 1557.82 1479.41 1558.26 1477.51 1558.34 C 1457.92 1559.13 1437.76 1558.15 1418.11 1558.25 A 14730.1 14730.1 0 0 1 1260.81 1558.29 C 1247.06 1558.26 1127.75 1559.48 1123.9 1556.94 C 1123.66 1555.08 1123.32 1553.27 1123.64 1551.41 C 1124.05 1549.08 1124.09 1548.54 1126.32 1547.65 C 1130.97 1545.79 1136.53 1544.89 1141.4 1543.51 C 1152.61 1540.31 1163.03 1534.13 1172.3 1527.13 C 1186.47 1516.43 1200.21 1501.1 1202.38 1482.8 C 1204.67 1463.58 1195.52 1444.08 1183.67 1429.56 C 1226.29 1386.08 1277.92 1351.5 1329.61 1319.87 z"/>
<path transform="translate(0,0)" fill="rgb(30,66,75)" d="M 1825.39 0 L 1862.45 0 L 1963.2 0 L 2048 0 L 2048 1.71169 L 2048 304.792 C 2039.16 317.852 2031.64 336.228 2024.16 350.541 C 2013.57 370.814 2001.75 390.479 1991.56 410.931 A 911.516 911.516 0 0 0 1990.66 377.943 C 1990.01 366.039 1987.36 322.946 1979.7 316.091 C 1973.79 319.977 1976.24 334.392 1976.54 340.462 C 1977.59 361.585 1980.95 420.54 1973.08 437.48 C 1965.52 453.767 1953.59 468.191 1945.66 484.52 C 1946.86 457.904 1946.15 413.63 1940.08 388.689 C 1939.24 385.214 1938.2 379.468 1935.1 377.579 C 1932.02 380.476 1931.47 385.229 1931.03 389.305 C 1930.15 397.362 1931.05 406.106 1931.04 414.253 C 1931.01 434.152 1930.79 491.077 1926.81 507.641 C 1921.65 529.096 1834.1 646.249 1816.73 671.536 C 1807.59 652.92 1800.26 633.876 1789.93 615.763 C 1761.26 565.491 1708.91 509.526 1656.15 485.015 C 1661.49 473.109 1669.08 461.789 1675.16 450.177 C 1646.5 435.067 1617.7 425.176 1585.13 423.822 C 1579.19 433.63 1573.55 443.654 1567.79 453.574 C 1553.76 450.468 1539.91 448.959 1525.62 447.967 C 1543.29 416.744 1562.68 386.442 1581.49 355.902 A 4660.8 4660.8 0 0 1 1746.27 106.124 A 4005.22 4005.22 0 0 1 1792.12 42.8852 C 1802.49 28.8778 1812.98 13.7112 1825.26 1.29577 L 1825.39 0 z"/>
<path transform="translate(0,0)" fill="rgb(242,239,230)" d="M 1825.39 0 L 1862.45 0 L 1861.11 2.08033 C 1849.34 0.544854 1837.1 2.78082 1825.26 1.29577 L 1825.39 0 z"/>
<path transform="translate(0,0)" fill="rgb(242,239,230)" d="M 1963.2 0 L 2048 0 L 2048 1.71169 C 2019.5 2.39346 1990.04 3.01577 1961.59 1.65469 L 1963.2 0 z"/>
<path transform="translate(0,0)" fill="rgb(242,239,230)" d="M 1862.45 0 L 1963.2 0 L 1961.59 1.65469 C 1958.96 2.27452 1958.14 2.39081 1956.26 4.45482 C 1951.91 9.20071 1948.42 15.333 1944.73 20.6428 L 1920.51 55.5389 A 4604.22 4604.22 0 0 0 1800.09 240.326 C 1759.74 305.533 1719.5 371.404 1682.2 438.401 C 1652.52 422.329 1624.52 411.638 1590.11 414.737 C 1623.38 351.916 1662.77 291.577 1701.42 231.963 C 1752.09 153.806 1803.99 75.7156 1861.11 2.08033 L 1862.45 0 z"/>
<path transform="translate(0,0)" fill="rgb(30,66,75)" d="M 753.073 539.51 C 832.547 537.503 912.35 539.006 991.861 538.97 C 1046.34 674.946 1097.72 812.232 1152.93 947.898 C 1140.25 961.807 1127.39 975.449 1113.76 988.444 C 1132.59 1001.33 1144.76 1022.11 1150.68 1043.74 C 1168.68 1109.45 1144.48 1211.36 1127.17 1276.54 C 1121.69 1297.16 1116.58 1321.92 1105.96 1340.57 C 1101.02 1322.06 1093.64 1304.06 1086.96 1286.11 A 3267.42 3267.42 0 0 0 1052.26 1196.02 L 676.673 1195.96 A 8981.28 8981.28 0 0 1 594.473 1393.99 C 582.316 1422.38 570.732 1450.96 557.961 1479.09 C 573.375 1503.13 597.481 1528.92 623.754 1540.92 C 633.605 1545.42 644.008 1547.82 654.395 1550.68 C 655.507 1553.5 655.501 1555.74 655.462 1558.7 C 655.149 1558.84 654.847 1559 654.522 1559.1 C 648.672 1560.9 614.291 1559.52 604.972 1559.56 A 12864.7 12864.7 0 0 1 440.69 1559.09 C 422.477 1558.94 404.144 1559.81 385.958 1559.24 C 382.14 1559.12 379.162 1558.56 375.783 1556.75 C 374.22 1554.33 374.234 1554.51 374.772 1551.69 C 377.955 1548.19 391.667 1547.22 397.245 1545.31 C 436.463 1531.88 466.123 1497.57 483.661 1461.26 C 499.283 1428.55 511.989 1394.06 525.631 1360.46 L 585.305 1216.01 L 817.317 645.269 C 830.731 680.26 844.363 715.386 856.228 750.928 C 845.332 782.249 831.835 813.33 819.413 844.099 L 754.733 1005.97 C 739.544 1043.47 722.923 1080.86 709.38 1118.97 C 757.795 1119.69 806.271 1119.13 854.693 1119.16 A 14825.1 14825.1 0 0 0 1022.93 1119.07 C 1013.31 1089.49 1001.41 1060.42 990.244 1031.39 L 952.848 932.244 L 865.497 696.733 C 847.316 648.852 828.51 589.539 782.456 561.302 C 772.35 555.105 761.652 552.599 750.994 547.812 C 750.069 544.91 750.612 543.611 751.21 540.669 L 753.073 539.51 z"/>
<path transform="translate(0,0)" fill="rgb(30,66,75)" d="M 1772.68 1.60762 C 1779.88 1.92274 1786.97 1.3834 1794.14 0.883669 C 1793.61 2.79072 1793.07 4.4102 1791.98 6.08064 C 1785.66 15.7173 1776.96 24.5883 1769.62 33.5699 A 1874.82 1874.82 0 0 0 1736.53 76.0998 C 1670.22 163.453 1607.91 261.866 1549.36 354.866 C 1532.87 381.047 1517.3 407.852 1501.13 434.242 C 1494.49 445.088 1488.17 456.706 1480.66 466.966 C 1559.84 457.07 1630.49 480.74 1692.8 529.231 A 340.686 340.686 0 0 1 1799.07 672.039 C 1804.78 686.464 1808.56 701.328 1813.53 715.976 A 3341.97 3341.97 0 0 0 1932.06 548.123 C 1942.95 531.555 1954.78 515.358 1965.04 498.406 C 1984.98 465.476 2004.18 432.189 2023.56 398.936 C 2031.76 384.852 2038.9 369.951 2048 356.427 L 2048 393.263 C 1980.28 513.011 1902.95 626.116 1820.79 736.351 C 1797.8 767.184 1770.5 808.697 1741.23 833.047 C 1715.57 854.405 1685.58 864.534 1653.98 873.536 C 1651.37 885.616 1647.17 897.755 1643.67 909.638 L 1622.29 981.568 L 1544.13 1240.95 A 137.12 137.12 0 0 0 1511.01 1235.08 C 1408.3 1228.85 1270.51 1322.71 1196.28 1389.26 C 1150.68 1430.15 1109.91 1476.11 1064.03 1516.82 C 1081.28 1486.43 1092.94 1452.78 1104.87 1420.01 C 1127.47 1357.95 1149.05 1293.75 1163.04 1229.14 C 1176.07 1168.92 1190.06 1085.69 1171.5 1025.6 C 1167.41 1012.34 1161.31 1000.92 1153.82 989.287 C 1170.85 970.477 1186.55 950.267 1202.37 930.43 A 5920.72 5920.72 0 0 0 1279.39 832.323 C 1320.5 779.403 1363.13 727.507 1404.87 675.07 C 1396.97 660.254 1391.14 646.557 1390.16 629.623 C 1388.8 605.995 1395.42 583.648 1404.98 562.285 C 1417.32 534.723 1434.2 509.001 1449.85 483.23 A 9389.93 9389.93 0 0 1 1518.68 371.756 A 6382.41 6382.41 0 0 1 1655.53 159.515 C 1691.92 105.42 1729.49 50.5239 1772.68 1.60762 z"/>
<path transform="translate(0,0)" fill="rgb(242,239,230)" d="M 1381.07 976.284 C 1391.86 975.021 1403.82 977.301 1412.49 984.104 C 1419.28 989.44 1424.18 997.39 1425.05 1006.07 C 1425.91 1014.64 1422.37 1023.18 1416.81 1029.58 C 1408.66 1038.99 1397.77 1042.54 1385.77 1043.61 C 1375.94 1043.18 1367.01 1041.83 1358.52 1036.48 C 1350.66 1031.53 1343.68 1023.3 1342.01 1013.96 C 1340.8 1007.18 1343.03 1000.54 1347.01 995.055 C 1355.11 983.869 1367.86 978.516 1381.07 976.284 z"/>
<path transform="translate(0,0)" fill="rgb(242,239,230)" d="M 1487.14 597.406 C 1509.58 596.601 1532.87 602.489 1553.68 610.505 C 1611.04 632.611 1671.03 681.975 1695.84 738.771 C 1705.16 760.108 1712.43 789.281 1707.4 812.52 C 1705.2 822.661 1700.71 832.617 1696.95 842.254 C 1686.03 847.52 1673.7 850.313 1662.22 854.23 C 1672.68 840.7 1693.09 809.748 1691.62 792.277 C 1691.52 791.222 1691.44 790.166 1691.3 789.115 C 1685.49 742.924 1649.42 698.629 1613.75 671.064 C 1574.09 640.411 1522.41 614.913 1470.91 621.609 C 1446.11 624.832 1430.27 637.274 1415.25 656.578 C 1413.58 649.719 1412.15 643.023 1411.29 636.013 C 1413.01 633.007 1414.78 630.173 1417.04 627.547 C 1434.86 606.85 1460.83 599.46 1487.14 597.406 z"/>
<path transform="translate(0,0)" fill="rgb(242,239,230)" d="M 1506.18 480.41 C 1561.1 475.058 1622.91 500.345 1667.63 531.059 A 315.664 315.664 0 0 1 1800.42 734.278 C 1793.12 745.783 1784.78 756.745 1776.74 767.739 C 1759.44 791.394 1742.28 816.099 1716.43 831.063 C 1720.68 821.84 1723.64 812.469 1724.6 802.322 C 1728.88 756.947 1704.11 713.221 1676.22 679.549 A 294.193 294.193 0 0 0 1646 647.863 C 1603.86 609.811 1542.07 577.862 1484.02 581.064 C 1453.2 582.764 1427.81 593.36 1407.2 616.488 C 1410.07 593.67 1424.13 553.988 1439.84 536.706 C 1463.08 511.145 1517.13 511.213 1548.28 515.358 C 1558.39 516.704 1569.52 520.785 1579.6 520.46 C 1571.34 516.407 1560.78 514.003 1551.78 511.974 C 1516.18 503.949 1478.06 501.635 1446.19 521.752 C 1453.84 510.675 1459.81 498.134 1468.85 488.106 C 1481.13 483.573 1493.2 481.623 1506.18 480.41 z"/>
<path transform="translate(0,0)" fill="rgb(30,66,75)" d="M 1628.95 533.505 C 1629.28 533.673 1629.63 533.813 1629.95 534.01 C 1636.45 538.04 1642.76 543.325 1649.06 547.793 C 1697.68 582.31 1749.33 630.221 1764.49 690.133 C 1771.96 719.647 1758.94 742.498 1744.12 767.272 C 1739.62 774.684 1734.32 781.333 1728.56 787.783 C 1744.19 738.526 1711.24 691.57 1681.81 654.577 C 1672.66 643.075 1662.24 632.295 1654.66 619.647 C 1639.86 594.944 1630.55 562.282 1628.95 533.505 z"/>
<path transform="translate(0,0)" fill="rgb(242,239,230)" d="M 1462.83 650.355 C 1482.67 648.192 1502.7 651.923 1521.32 658.689 A 252.073 252.073 0 0 1 1661.88 787.308 C 1646.82 845.232 1628.69 902.305 1611.43 959.598 A 24065.1 24065.1 0 0 1 1532.34 1220.44 A 211.7 211.7 0 0 0 1509.85 1218.34 C 1406.19 1214.42 1282.64 1293.86 1206.68 1359.03 C 1179.36 1382.47 1155.26 1408.77 1128.79 1433.03 C 1144.88 1407.3 1159.7 1380.71 1175.11 1354.56 L 1289.1 1160.16 C 1311.3 1122.18 1332.93 1083.75 1356.23 1046.43 C 1365.84 1050.56 1375.25 1053.22 1385.74 1053.56 C 1398.88 1052.57 1410.13 1048.71 1420 1039.65 C 1432.12 1028.54 1438.81 1012.03 1439.53 995.759 C 1440.16 981.477 1435.11 966.999 1425.21 956.584 C 1415.06 945.913 1400.91 940.788 1386.38 940.739 A 58.8918 58.8918 0 0 0 1344.3 958.302 C 1333.84 968.745 1327.24 983.055 1327.52 997.972 C 1327.88 1016.92 1336.95 1028.01 1349.89 1040.49 C 1284.86 1143.69 1227 1251.38 1163.54 1355.56 C 1153.71 1371.7 1144.31 1388.15 1134.78 1404.48 C 1131.29 1410.46 1128.31 1416.97 1124.47 1422.69 L 1124 1422.01 C 1132.52 1400.88 1139.21 1378.27 1145.96 1356.48 C 1157.06 1320.64 1167.49 1284.86 1176.2 1248.35 C 1193.49 1175.87 1215.99 1057.49 1175.08 991.037 A 182.797 182.797 0 0 1 1180.19 983.92 C 1198.48 959.841 1218.54 936.78 1237.46 913.162 L 1352.13 768.896 A 7320.16 7320.16 0 0 1 1415.07 690.373 C 1423.14 680.327 1430.68 667.838 1440.07 659.114 C 1446.45 653.186 1454.53 651.546 1462.83 650.355 z"/>
<path transform="translate(0,0)" fill="rgb(30,66,75)" d="M 1466.35 671.134 C 1470.23 670.597 1475.91 670.041 1479.25 672.611 C 1481.4 674.268 1481.82 676.065 1481.82 678.655 C 1481.87 691.366 1443.29 729.379 1433.34 741.057 A 5215.56 5215.56 0 0 1 1306.2 886.464 C 1278.75 916.695 1250.84 947.514 1220.7 975.102 C 1218.67 977.033 1216.54 978.863 1214.44 980.718 L 1213.68 980.576 L 1215.16 980.247 L 1214.25 979.508 C 1223.16 966.811 1233.86 954.956 1243.46 942.728 A 6746.59 6746.59 0 0 0 1304.43 863.651 L 1383.81 759.304 C 1400.68 737.298 1417.71 713.652 1436.56 693.307 C 1445.01 684.181 1454.88 676.045 1466.35 671.134 z"/>
<path transform="translate(0,0)" fill="rgb(30,66,75)" d="M 1592.19 727.509 C 1611.51 743.051 1626.01 766.776 1638.97 787.606 C 1633.77 801.881 1629.88 816.695 1625.58 831.267 L 1600.86 916.302 L 1557.7 1059.37 C 1544.17 1104.3 1531.01 1149.43 1516.37 1194 C 1503.92 1193.87 1491.62 1193.62 1479.2 1194.82 C 1420.02 1200.54 1362.85 1225.41 1312.45 1255.8 C 1304.03 1261.26 1291.22 1270 1282.06 1273.79 L 1284.44 1272.48 L 1283.84 1271.88 C 1324.19 1235.92 1374.48 1207.16 1426.36 1192.09 L 1592.19 727.509 z"/>
</svg>
